images/manger.svg

<?xml version="1.0" encoding="UTF-8" standalone="no"?>
<svg xmlns:dc="http://purl.org/dc/elements/1.1/" xmlns:cc="http://creativecommons.org/ns#" xmlns:rdf="http://www.w3.org/1999/02/22-rdf-syntax-ns#" xmlns:svg="http://www.w3.org/2000/svg" xmlns="http://www.w3.org/2000/svg" xmlns:sodipodi="http://sodipodi.sourceforge.net/DTD/sodipodi-0.dtd" xmlns:inkscape="http://www.inkscape.org/namespaces/inkscape" version="1.1" id="svg109" width="14" height="14" viewBox="0 0 14 14" sodipodi:docname="manger.svg" inkscape:version="0.92.4 (5da689c313, 2019-01-14)">
  <sodipodi:namedview pagecolor="#ffffff" bordercolor="#666666" borderopacity="1" objecttolerance="10" gridtolerance="10" guidetolerance="10" inkscape:pageopacity="0" inkscape:pageshadow="2" inkscape:window-width="1881" inkscape:window-height="1051" id="namedview844" showgrid="true" inkscape:pagecheckerboard="true" inkscape:zoom="30.642857" inkscape:cx="8.3050829" inkscape:cy="10.493642" inkscape:window-x="0" inkscape:window-y="0" inkscape:window-maximized="1" inkscape:current-layer="svg109">
    <inkscape:grid type="xygrid" id="grid846" units="px" spacingx="1" spacingy="1" />
  </sodipodi:namedview>
  <metadata id="metadata115">
    <rdf:RDF>
      <cc:Work rdf:about="">
        <dc:format>image/svg+xml</dc:format>
        <dc:type rdf:resource="http://purl.org/dc/dcmitype/StillImage" />
        <dc:title />
      </cc:Work>
    </rdf:RDF>
  </metadata>
  <defs id="defs113" />
  <path id="outline" d="M 7,1.4609375 L 1.8144531,3.5351562 L 2.1855469,4.4648438 L 4.1425781,3.6816406 L 6.4042969,6.4257812 L 3.6210938,9.6738281 L 4.3789062,10.326172 L 7.0507812,7.2089844 L 9.6132812,10.318359 L 10.386719,9.6816406 L 7.7109375,6.4375 L 10.019531,3.7460938 L 11.814453,4.4648438 L 12.185547,3.5351562 Z M 7,2.5390625 L 9.0371094,3.3535156 L 7.0644531,5.6542969 L 5.1171875,3.2929688 Z" style="color:#000000;font-style:normal;font-variant:normal;font-weight:normal;font-stretch:normal;font-size:medium;line-height:normal;font-family:sans-serif;font-variant-ligatures:normal;font-variant-position:normal;font-variant-caps:normal;font-variant-numeric:normal;font-variant-alternates:normal;font-feature-settings:normal;text-indent:0;text-align:start;text-decoration:none;text-decoration-line:none;text-decoration-style:solid;text-decoration-color:#000000;letter-spacing:normal;word-spacing:normal;text-transform:none;writing-mode:lr-tb;direction:ltr;text-orientation:mixed;dominant-baseline:auto;baseline-shift:baseline;text-anchor:start;white-space:normal;shape-padding:0;clip-rule:nonzero;display:inline;overflow:visible;visibility:visible;opacity:0.5;isolation:auto;mix-blend-mode:normal;color-interpolation:sRGB;color-interpolation-filters:linearRGB;solid-color:#000000;solid-opacity:1;vector-effect:none;fill:none;fill-opacity:1;fill-rule:evenodd;stroke:#ffffff;stroke-width:3;stroke-linecap:round;stroke-linejoin:round;stroke-miterlimit:4;stroke-dasharray:none;stroke-dashoffset:0;stroke-opacity:1;color-rendering:auto;image-rendering:auto;shape-rendering:auto;text-rendering:auto;enable-background:accumulate" inkscape:connector-curvature="0" />
  <path style="color:#000000;font-style:normal;font-variant:normal;font-weight:normal;font-stretch:normal;font-size:medium;line-height:normal;font-family:sans-serif;font-variant-ligatures:normal;font-variant-position:normal;font-variant-caps:normal;font-variant-numeric:normal;font-variant-alternates:normal;font-feature-settings:normal;text-indent:0;text-align:start;text-decoration:none;text-decoration-line:none;text-decoration-style:solid;text-decoration-color:#000000;letter-spacing:normal;word-spacing:normal;text-transform:none;writing-mode:lr-tb;direction:ltr;text-orientation:mixed;dominant-baseline:auto;baseline-shift:baseline;text-anchor:start;white-space:normal;shape-padding:0;clip-rule:nonzero;display:inline;overflow:visible;visibility:visible;opacity:1;isolation:auto;mix-blend-mode:normal;color-interpolation:sRGB;color-interpolation-filters:linearRGB;solid-color:#000000;solid-opacity:1;vector-effect:none;fill:#000000;fill-opacity:1;fill-rule:evenodd;stroke:none;stroke-width:1;stroke-linecap:butt;stroke-linejoin:miter;stroke-miterlimit:4;stroke-dasharray:none;stroke-dashoffset:0;stroke-opacity:1;color-rendering:auto;image-rendering:auto;shape-rendering:auto;text-rendering:auto;enable-background:accumulate" d="M 7 1.4609375 L 1.8144531 3.5351562 L 2.1855469 4.4648438 L 4.1425781 3.6816406 L 6.4042969 6.4257812 L 3.6210938 9.6738281 L 4.3789062 10.326172 L 7.0507812 7.2089844 L 9.6132812 10.318359 L 10.386719 9.6816406 L 7.7109375 6.4375 L 10.019531 3.7460938 L 11.814453 4.4648438 L 12.185547 3.5351562 L 7 1.4609375 z M 7 2.5390625 L 9.0371094 3.3535156 L 7.0644531 5.6542969 L 5.1171875 3.2929688 L 7 2.5390625 z " id="path848" />
</svg>

<svg xmlns="http://www.w3.org/2000/svg" width="14" height="14">
    <path d="M7 1.46L1.814 3.536l.372.93 1.957-.783 2.261 2.744-2.783 3.248.758.652L7.05 7.21l2.562 3.11.774-.637L7.71 6.437l2.309-2.69 1.794.718.372-.93zm0 1.08l2.037.814-1.973 2.3-1.947-2.361z" color="#000" opacity=".5" fill="none" stroke="#fff" stroke-width="3" stroke-linecap="round" stroke-linejoin="round"/>
    <path d="M7 1.46L1.814 3.536l.372.93 1.957-.783 2.261 2.744-2.783 3.248.758.652L7.05 7.21l2.562 3.11.774-.637L7.71 6.437l2.309-2.69 1.794.718.372-.93L7 1.461zm0 1.08l2.037.814-1.973 2.3-1.947-2.361L7 2.539z" color="#000" fill-rule="evenodd"/>
</svg>
